X: 395
T: Moldavian tants
O: Abe Shwartz
Z: John Chambers <jc@trillian.mit.edu>
N: Combined versions from several friends, recordings, and books.
B: Naftule's Dream Music
D:
M: 4/4
L: 1/8
K: DPhr
|: "D"DA/A/ AA AG ^F>E \
| DE ^FG FE D2 \
| "D"DA/A/ AG ^FG AB \
| A4 d4 \
| "D"DA/A/ AA AG ^F>E \
| DE ^FG "Cm"FE/D/ C2 |
| "Cm"zC =B,C DE ^FE \
| "D"D4 z4 :: \
| "Cm"zC =B,C DE DC \
| zE DE ^FG FE \
| zG ^FG AB AG \
| "D"A3 G ^FE D2 |
| "Cm"zC =B,C DE DC \
| zE DE ^FG FE \
| AG G^F FE ED \
|[1 "D"D4 z4 :|[2 "D" D4 z|: DBA \
| "Gm"G4- GD B,D \
| GB AG "D"dA2 G |
| "D"A4- AD cB \
| AG ^FG AD EF \
| "Gm"G4- GD B,D \
| GB AG "D"dA2 G \
| ^FG AG "Cm"FC DE \
| "D"D4 z :|
